X:22
% ---------------------------
T: Knockabower Polka #2
% ---------------------------
Z: Jim Davis for CoMando TOW #22 2008
M: 2/4
L: 1/8
Q: 200
K: G
P: A
"G"GB B/c/B/A/|GB B>A|"D7"FA AB/A/|FA D2|
"G"GB B>A|GB d>g|"D7"fd cA|"G"G2 G2:|
P: B
|:"G"g>f gd|"A7"ga a>g|"D7"fd d>e|fg a/f/d|
"G"g>f g>f|"A7"ga a>g|"D7"fd cA|"G"G2 G2:|
P: C
|:"G"B>A Bc|"D7"d>c AG|F>E FG|AB c/B/A|
"G"B>A Bc|"D7"d>c A>g|fd cA|"G"G2 G2:|
%%vskip 0.3in
% --------------------------------------------------------------
